usr/share/icons/biglinux-icons-material/32/actions/view-left-close.svg

<svg version="1.1" viewBox="0 0 32 32" xmlns="http://www.w3.org/2000/svg">
 <defs>
  <style id="current-color-scheme" type="text/css">.ColorScheme-Text {
        color:#363636;
      }</style>
 </defs>
 <path d="m16 14.71-3.293 3.293 3.293 3.293c-0.013 0.025-0.707 0.707-0.707 0.707l-3.293-3.293-3.293 3.293-0.707-0.707 3.293-3.293-3.293-3.293 0.707-0.707 3.293 3.293 3.293-3.293z" fill="#da4453"/>
 <path class="ColorScheme-Text" d="m7 4c-1.662 0-3 1.338-3 3v18c0 1.662 1.338 3 3 3h18c1.662 0 3-1.338 3-3v-18c0-1.662-1.338-3-3-3zm0 1h18c1.108 0 2 0.892 2 2v1h-22v-1c0-1.108 0.892-2 2-2zm-2 4h22v16c0 1.108-0.892 2-2 2h-18c-1.108 0-2-0.892-2-2z" fill="currentColor"/>
 <rect x="19" y="9" width="1" height="18" class="ColorScheme-Text" fill="currentColor"/>
</svg>

<svg xmlns="http://www.w3.org/2000/svg" viewBox="0 0 32 32"><defs><style id="current-color-scheme" type="text/css">.ColorScheme-Text{color:#dedede}</style></defs><path fill="#da4453" d="m16 14.71-3.293 3.293L16 21.296c-.013.025-.707.707-.707.707L12 18.71l-3.293 3.293L8 21.296l3.293-3.293L8 14.71l.707-.707L12 17.296l3.293-3.293z"/><path fill="currentColor" d="M7 4C5.338 4 4 5.338 4 7v18c0 1.662 1.338 3 3 3h18c1.662 0 3-1.338 3-3V7c0-1.662-1.338-3-3-3zm0 1h18c1.108 0 2 .892 2 2v1H5V7c0-1.108.892-2 2-2zM5 9h22v16c0 1.108-.892 2-2 2H7c-1.108 0-2-.892-2-2z" class="ColorScheme-Text"/><path fill="currentColor" d="M19 9h1v18h-1z" class="ColorScheme-Text"/></svg>
